2018/img/ig.svg

<svg height="40" viewBox="0 0 40 40" width="40" xmlns="http://www.w3.org/2000/svg"><path d="m824.46875 128.802083v-16.875h-3.515625c.347224 1.093756.520833 2.230897.520833 3.411459 0 2.187511-.55555 4.20572-1.666666 6.054687-1.111117 1.848968-2.621519 3.311627-4.53125 4.388021-1.909732 1.076394-3.993045 1.614583-6.25 1.614583-3.420156 0-6.345474-1.176203-8.776042-3.528645-2.430568-2.352443-3.645833-5.195296-3.645833-8.528646 0-1.180562.173609-2.317703.520833-3.411459h-3.671875v16.875c0 .451391.151908.828992.455729 1.132813s.681422.455729 1.132813.455729h27.838541c.43403 0 .80729-.151908 1.119792-.455729s.46875-.681422.46875-1.132813zm-9.765625-8.359375c1.579869-1.527785 2.369792-3.368044 2.369792-5.520833s-.785583-3.988708-2.356771-5.507812c-1.571189-1.519105-3.467871-2.278646-5.690104-2.278646-2.204872 0-4.092874.759541-5.664063 2.278646-1.571188 1.519104-2.356771 3.355023-2.356771 5.507812s.785583 3.988708 2.356771 5.507813c1.571189 1.519104 3.459191 2.278645 5.664063 2.278645 2.222233 0 4.114575-.7552 5.677083-2.265625zm9.765625-14.895833v-4.296875c0-.486114-.173609-.907116-.520833-1.2630208-.347224-.3559046-.772567-.5338542-1.276042-.5338542h-4.53125c-.503475 0-.928818.1779496-1.276042.5338542-.347224.3559048-.520833.7769068-.520833 1.2630208v4.296875c0 .503475.173609.928818.520833 1.276042s.772567.520833 1.276042.520833h4.53125c.503475 0 .928818-.173609 1.276042-.520833s.520833-.772567.520833-1.276042zm4.53125-5.416667v29.739584c0 1.406257-.503467 2.612842-1.510417 3.619791-1.006949 1.00695-2.213534 1.510417-3.619791 1.510417h-29.739584c-1.406257 0-2.612842-.503467-3.619791-1.510417-1.00695-1.006949-1.510417-2.213534-1.510417-3.619791v-29.739584c0-1.4062567.503467-2.6128419 1.510417-3.6197913 1.006949-1.0069495 2.213534-1.5104167 3.619791-1.5104167h29.739584c1.406257 0 2.612842.5034672 3.619791 1.5104167 1.00695 1.0069494 1.510417 2.2135346 1.510417 3.6197913z" fill="#fff" fill-rule="evenodd" transform="translate(-789 -95)"/></svg>

<?xml version="1.0" encoding="UTF-8"?>
<svg width="40px" height="40px" viewBox="0 0 40 40" version="1.1" xmlns="http://www.w3.org/2000/svg" xmlns:xlink="http://www.w3.org/1999/xlink">
    <!-- Generator: Sketch 48.2 (47327) - http://www.bohemiancoding.com/sketch -->
    <title>ig</title>
    <desc>Created with Sketch.</desc>
    <defs></defs>
    <g id="Homepage" stroke="none" stroke-width="1" fill="none" fill-rule="evenodd" transform="translate(-789.000000, -4294.000000)">
        <g id="Footer" transform="translate(0.000000, 4199.000000)" fill="#FFFFFF">
            <path d="M824.46875,128.802083 L824.46875,111.927083 L820.953125,111.927083 C821.300349,113.020839 821.473958,114.15798 821.473958,115.338542 C821.473958,117.526053 820.918408,119.544262 819.807292,121.393229 C818.696175,123.242197 817.185773,124.704856 815.276042,125.78125 C813.36631,126.857644 811.282997,127.395833 809.026042,127.395833 C805.605886,127.395833 802.680568,126.21963 800.25,123.867188 C797.819432,121.514745 796.604167,118.671892 796.604167,115.338542 C796.604167,114.15798 796.777776,113.020839 797.125,111.927083 L793.453125,111.927083 L793.453125,128.802083 C793.453125,129.253474 793.605033,129.631075 793.908854,129.934896 C794.212675,130.238717 794.590276,130.390625 795.041667,130.390625 L822.880208,130.390625 C823.314238,130.390625 823.687498,130.238717 824,129.934896 C824.312502,129.631075 824.46875,129.253474 824.46875,128.802083 Z M814.703125,120.442708 C816.282994,118.914923 817.072917,117.074664 817.072917,114.921875 C817.072917,112.769086 816.287334,110.933167 814.716146,109.414063 C813.144957,107.894958 811.248275,107.135417 809.026042,107.135417 C806.82117,107.135417 804.933168,107.894958 803.361979,109.414063 C801.790791,110.933167 801.005208,112.769086 801.005208,114.921875 C801.005208,117.074664 801.790791,118.910583 803.361979,120.429688 C804.933168,121.948792 806.82117,122.708333 809.026042,122.708333 C811.248275,122.708333 813.140617,121.953133 814.703125,120.442708 Z M824.46875,105.546875 L824.46875,101.25 C824.46875,100.763886 824.295141,100.342884 823.947917,99.9869792 C823.600693,99.6310746 823.17535,99.453125 822.671875,99.453125 L818.140625,99.453125 C817.63715,99.453125 817.211807,99.6310746 816.864583,99.9869792 C816.517359,100.342884 816.34375,100.763886 816.34375,101.25 L816.34375,105.546875 C816.34375,106.05035 816.517359,106.475693 816.864583,106.822917 C817.211807,107.170141 817.63715,107.34375 818.140625,107.34375 L822.671875,107.34375 C823.17535,107.34375 823.600693,107.170141 823.947917,106.822917 C824.295141,106.475693 824.46875,106.05035 824.46875,105.546875 Z M829,100.130208 L829,129.869792 C829,131.276049 828.496533,132.482634 827.489583,133.489583 C826.482634,134.496533 825.276049,135 823.869792,135 L794.130208,135 C792.723951,135 791.517366,134.496533 790.510417,133.489583 C789.503467,132.482634 789,131.276049 789,129.869792 L789,100.130208 C789,98.7239513 789.503467,97.5173661 790.510417,96.5104167 C791.517366,95.5034672 792.723951,95 794.130208,95 L823.869792,95 C825.276049,95 826.482634,95.5034672 827.489583,96.5104167 C828.496533,97.5173661 829,98.7239513 829,100.130208 Z" id="ig"></path>
        </g>
    </g>
</svg>
